svgs/light/floppy-disks.svg

<svg xmlns="http://www.w3.org/2000/svg" viewBox="0 0 512 512"><!-- Font Awesome Pro 6.0.0-alpha2 by @fontawesome - https://fontawesome.com License - https://fontawesome.com/license (Commercial License) --><path d="M400 480H96C60.654 480 32 451.346 32 416V112C32 103.164 24.836 96 16 96S0 103.164 0 112V416C0 469.02 42.98 512 96 512H400C408.836 512 416 504.836 416 496S408.836 480 400 480ZM488.562 97.938L414.062 23.438C398.938 8.328 378.875 0 357.5 0H176C131.875 0 96 35.891 96 80V336C96 380.109 131.875 416 176 416H432C476.125 416 512 380.109 512 336V154.516C512 133.141 503.688 113.047 488.562 97.938ZM192 32H352V112H192V32ZM480 336C480 362.469 458.469 384 432 384H176C149.531 384 128 362.469 128 336V80C128 59.168 141.416 41.574 160 34.947V112C160 129.672 174.326 144 192 144H352C369.674 144 384 129.672 384 112V40.02C386.664 41.777 389.166 43.791 391.438 46.063L465.938 120.563C475 129.641 480 141.688 480 154.516V336ZM296 192C256.312 192 224 224.297 224 264S256.312 336 296 336S368 303.703 368 264S335.688 192 296 192ZM296 304C273.938 304 256 286.062 256 264S273.938 224 296 224S336 241.938 336 264S318.062 304 296 304Z"/></svg>

<svg xmlns="http://www.w3.org/2000/svg" viewBox="0 0 512 512"><!--! Font Awesome Pro 6.0.0-alpha3 by @fontawesome - https://fontawesome.com License - https://fontawesome.com/license (Commercial License) --><path d="M400 480H96c-35.35 0-64-28.65-64-64V112C32 103.2 24.84 96 16 96S0 103.2 0 112V416c0 53.02 42.98 96 96 96h304c8.836 0 16-7.164 16-16S408.8 480 400 480zM488.6 97.94l-74.5-74.5C398.9 8.328 378.9 0 357.5 0H176C131.9 0 96 35.89 96 80v256C96 380.1 131.9 416 176 416h256c44.13 0 80-35.89 80-80V154.5C512 133.1 503.7 113 488.6 97.94zM192 32h160v80H192V32zM480 336c0 26.47-21.53 48-48 48h-256C149.5 384 128 362.5 128 336v-256c0-20.83 13.42-38.43 32-45.05V112c0 17.67 14.33 32 32 32h160c17.67 0 32-14.33 32-32V40.02c2.664 1.758 5.166 3.771 7.438 6.043l74.5 74.5C475 129.6 480 141.7 480 154.5V336zM296 192C256.3 192 224 224.3 224 264s32.31 72 72 72s72-32.3 72-72S335.7 192 296 192zM296 304C273.9 304 256 286.1 256 264S273.9 224 296 224s40 17.94 40 40S318.1 304 296 304z"/></svg>
